packages/tokens/icons/atom/size32Px.svg

<svg viewBox="0 0 32 32" fill="none" xmlns="http://www.w3.org/2000/svg" width="1em" height="1em"><path d="M21.5 16C21.5 19.8149 20.8363 23.2449 19.7831 25.7025C19.2561 26.9322 18.6414 27.8954 17.9843 28.5439C17.3293 29.1903 16.6593 29.5 16 29.5C15.3407 29.5 14.6707 29.1903 14.0157 28.5439C13.3586 27.8954 12.7439 26.9322 12.2169 25.7025C11.1637 23.2449 10.5 19.8149 10.5 16C10.5 12.1851 11.1637 8.75508 12.2169 6.29746C12.7439 5.06777 13.3586 4.10457 14.0157 3.45606C14.6707 2.80968 15.3407 2.5 16 2.5C16.6593 2.5 17.3293 2.80968 17.9843 3.45606C18.6414 4.10457 19.2561 5.06777 19.7831 6.29746C20.8363 8.75508 21.5 12.1851 21.5 16Z" stroke="currentColor"/><path d="M18.8922 20.9053C15.5884 22.8127 12.2861 23.953 9.63114 24.2696C8.30268 24.4281 7.16118 24.3773 6.271 24.1325C5.38374 23.8885 4.78058 23.4631 4.4509 22.8921C4.12123 22.3211 4.05444 21.5861 4.28675 20.6957C4.51982 19.8024 5.04663 18.7884 5.84807 17.7172C7.44979 15.5762 10.0884 13.2864 13.3922 11.379C16.696 9.47155 19.9984 8.33129 22.6534 8.01464C23.9818 7.85619 25.1233 7.90694 26.0135 8.15175C26.9008 8.39577 27.5039 8.82113 27.8336 9.39214C28.1633 9.96315 28.23 10.6982 27.9977 11.5886C27.7647 12.4819 27.2379 13.4958 26.4364 14.5671C24.8347 16.7081 22.196 18.9978 18.8922 20.9053Z" stroke="currentColor"/><path d="M13.3922 20.9053C16.696 22.8127 19.9983 23.953 22.6533 24.2696C23.9817 24.4281 25.1232 24.3773 26.0134 24.1325C26.9007 23.8885 27.5038 23.4631 27.8335 22.8921C28.1632 22.3211 28.23 21.5861 27.9977 20.6957C27.7646 19.8024 27.2378 18.7884 26.4364 17.7172C24.8346 15.5762 22.196 13.2864 18.8922 11.379C15.5884 9.47155 12.2861 8.33129 9.63107 8.01464C8.30261 7.85619 7.16111 7.90694 6.27094 8.15175C5.38367 8.39577 4.78051 8.82113 4.45083 9.39214C4.12116 9.96315 4.05437 10.6982 4.28668 11.5886C4.51975 12.4819 5.04656 13.4958 5.848 14.5671C7.44973 16.7081 10.0884 18.9978 13.3922 20.9053Z" stroke="currentColor"/><circle cx="16" cy="16" r="1.5" stroke="currentColor"/></svg>

<svg xmlns="http://www.w3.org/2000/svg" fill="none" viewBox="0 0 32 32" width="1em" height="1em"><path stroke="currentColor" d="M21.5 16c0 3.815-.664 7.245-1.717 9.703-.527 1.23-1.142 2.192-1.799 2.84-.655.647-1.325.957-1.984.957-.66 0-1.33-.31-1.984-.956-.657-.649-1.272-1.612-1.8-2.841C11.165 23.245 10.5 19.815 10.5 16c0-3.815.664-7.245 1.717-9.703.527-1.23 1.142-2.192 1.799-2.84C14.67 2.81 15.34 2.5 16 2.5c.66 0 1.33.31 1.984.956.657.649 1.272 1.612 1.8 2.841C20.835 8.755 21.5 12.185 21.5 16Z"/><path stroke="currentColor" d="M18.892 20.905c-3.304 1.908-6.606 3.048-9.26 3.365-1.33.158-2.47.107-3.361-.137-.887-.244-1.49-.67-1.82-1.24-.33-.572-.397-1.307-.164-2.197.233-.894.76-1.908 1.561-2.979 1.602-2.14 4.24-4.43 7.544-6.338 3.304-1.907 6.606-3.048 9.261-3.364 1.329-.159 2.47-.108 3.36.137.888.244 1.49.67 1.82 1.24.33.571.397 1.306.165 2.197-.233.893-.76 1.907-1.562 2.978-1.601 2.141-4.24 4.43-7.544 6.338Z"/><path stroke="currentColor" d="M13.392 20.905c3.304 1.908 6.606 3.048 9.261 3.365 1.329.158 2.47.107 3.36-.137.888-.244 1.49-.67 1.82-1.24.33-.572.397-1.307.165-2.197-.233-.894-.76-1.908-1.562-2.979-1.601-2.14-4.24-4.43-7.544-6.338-3.304-1.907-6.606-3.048-9.26-3.364-1.33-.159-2.47-.108-3.361.137-.887.244-1.49.67-1.82 1.24-.33.571-.397 1.306-.164 2.197.233.893.76 1.907 1.561 2.978 1.602 2.141 4.24 4.43 7.544 6.338Z"/><circle cx="16" cy="16" r="1.5" stroke="currentColor"/></svg>
